**kern	**kern	**dynam
*part1	*part1	*part1
*staff2	*staff1	*
*I"Piano	*	*
*clefF4	*clefG2	*
*k[f#c#]	*k[f#c#]	*
=1	=1	=1
!	!	!LO:DY:a
!	!	!LO:DY:a
(1AA#X 1F#	(1e 1f# 1ee	mf > ]]
=	=	=
!	!	!LO:DY:a
2.BB) 2.F# 2.B	2.d#X) 2.f# 2.dd#X	mp
4FF# 4D#X 4F#	4B 4d# 4f# 4b	.
=	=	=
!	!	!LO:DY:a
2.FF# 2.E 2.F#	2.c# 2.e 2.f# 2.cc#	>
!	!	!LO:DY:a
4FF# 4C# 4F#	4A#X 4c# 4f# 4a#X	] p
=	=	=
*^	*	*
2BB 2D#X 2F#	2.ryy	2B 2d#X 2f# 2b	.
!	!	!	!LO:DY:a
4F# 4A#X	.	4c# 4f# 4cc#	<
4F# 4B	(8D#L	4d# 4f# 4dd#X	.
.	8BBJ)	.	.
*v	*v	*	*
=	=	=
!	!	!LO:DY:a
!	!	!LO:DY:a
(1FF# 1C# 1A#X	(1e 1f# 1ee	[ mf >
=	=	=
2.BB) 2.D#X 2.B	2.d#X) 2.f# 2.dd#X	.
!	!	!LO:DY:a
4D# 4F# 4B	4d# 4f# 4b	] p
=	=	=
[1FF# [1E [1F#	[1c# [1e [1f# [1cc#	.
=	=	=
*-	*-	*-
!!!system-decoration: {(s1,s2)}
